img/header/angle-down.svg

<svg width="9" height="7" viewBox="0 0 9 7" fill="none" xmlns="http://www.w3.org/2000/svg">
<path d="M4.03516 6.40234C4.28125 6.64844 4.69141 6.64844 4.9375 6.40234L8.65625 2.68359C8.92969 2.41016 8.92969 2 8.65625 1.75391L8.05469 1.125C7.78125 0.878906 7.37109 0.878906 7.125 1.125L4.47266 3.77734L1.84766 1.125C1.60156 0.878906 1.19141 0.878906 0.917969 1.125L0.316406 1.75391C0.0429688 2 0.0429688 2.41016 0.316406 2.68359L4.03516 6.40234Z" fill="#183B56"/>
</svg>

<svg width="9" height="7" fill="none" xmlns="http://www.w3.org/2000/svg"><path d="M4.035 6.402a.644.644 0 0 0 .902 0l3.72-3.718c.273-.274.273-.684 0-.93l-.602-.629c-.274-.246-.684-.246-.93 0L4.473 3.777 1.848 1.125c-.246-.246-.657-.246-.93 0l-.602.629c-.273.246-.273.656 0 .93l3.72 3.718z" fill="#183B56"/></svg>
